!!!COM: Robert Schumann
!!!CNT: Deutscher
!!!TXO: Deutsche 
!!!OTL: Intermezzo
!!!OPR: Liederkreis
!!!OPS: Opus 39
!!!ONM: No. 2
!!!LYR: Eichendorff
!!!ENC: Brian Bice
!!!YOR: Sa2mtliche Lieder, vol. 1, C.F. Peters
!!!ODT: 1840/
!!NB: Vocal melody and text only encoded.
**kern	**silbe
*clefG2	*
*k[f#c#g#]	*
*M2/4	*
=1	=1
4r	.
8r	.
{8ee	{Dein
=2	=2
8.dd	Bild-
16cc#	-nis
8b	wun-
8a#	-der-
=3	=3
8cc#	-se-
8b}	-lig}
4r	.
=4	=4
{8b	{hab'
16b	ich
16cc#	im
8dd	Her-
8b	-zens-
=5	=5
4cc#}	-grund,}
8r	.
16r	.
{16cc#	{das
=6	=6
(8b	sieht
16a)	|
16g#	so
8.f#	frisch
16ff#	und
=7	=7
8ee	fro2h-
8dd#}	-lich}
4r	.
=8	=8
16r	.
{16dd#	{mich
16ee	an
16cc#	zu
8.b	je-
16d#	-der
=9	=9
4e}	Stund'!}
8r	.
16r	.
{16e	{Mein
=10	=10
4e	Herz
8f#	still
16f#	in
16f#	sich
=11	=11
8b	sin-
8b}	-get}
8r	.
16r	.
{16b	{ein
=12	=12
8.b	al-
16b	-tes,
8.cc#S	scho2
16cc#	-nes
=13	=13
2dd}	Lied,}
=14	=14
{8dd	{das
16.dd	in
32dd	die
8.ff#	Luft
16dd	sich
=15	=15
8cc#	schwin-
8cc#}	-get}
4r	.
=16	=16
16r	.
{16dd	{und
16dd	zu
16dd	dir
8.ff#	ei-
16dd	-lig
=17	=17
4cc#}	zieht.}
8r	.
{8ee	{Dein
=18	=18
8.dd	Bild-
16cc#	-nis
8b	wun-
8a#	-der-
=19	=19
8cc#	-se-
8b}	-lig}
4r	.
=20	=20
{8b	{hab'
16b	ich
16cc#	im
8dd	Her-
8b	-zens-
=21	=21
4cc#}	-grund,}
8r	.
16r	.
{16a	{das
=22	=22
8.dd	sieht
16dd	so
8.ff#	frisch
16ff#	und
=23	=23
(16ff#	fro2h-
16g#)	|
8.g#}	-lich}
{16g#	{mich
16a	an
16dd	zu
=24	=24
8.cc#	je-
16b	-der,
8.b	je-
16a	-der
=25	=25
4a}	Stund'.}
4r	.
*-	*-
